X:10
T: Father O'Flynn
C: Trad.
O: Ireland
R: jig
M: 6/8
L: 1/8
K: Dmaj
|: A | dAF DFA | ded cBA | dcd efg | fdf ecA |
| dAF DFA | ded cBA | dcd efg fdd d2 :|
